X:1
T:Magnus sanctus Paulus
T:Magnus sanctus Paulus
T:Giovanni Pierluigi da Palestrina (c.1525-1594)
T:© 2010 by Paul R Marchesano. May be freely copied fo rnonprofit use.
T:© 2010 by Paul R Marchesano. May be freely copied fo rnonprofit use.
T:© 2010 by Paul R Marchesano. May be freely copied fo rnonprofit use.
T:© 2010 by Paul R Marchesano. May be freely copied fo rnonprofit use.
T:© 2010 by Paul R Marchesano. May be freely copied fo rnonprofit use.
T:© 2010 by Paul R Marchesano. May be freely copied fo rnonprofit use.
T:© 2010 by Paul R Marchesano. May be freely copied fo rnonprofit use.
T:© 2010 by Paul R Marchesano. May be freely copied fo rnonprofit use.
C:Giovanni Pierluigi da Palestrina
C:(c.1525-1594)
Z:© 2010 by Paul R Marchesano. May be freely copied fo rnonprofit use.
%%score 1 2 3 4
L:1/8
Q:1/4=130
M:2/2
K:C
V:1 treble nm="Soprano" snm="S"
V:2 treble nm="Alto" snm="A"
V:3 treble-8 nm="Tenor" snm="T"
V:4 bass nm="Bass" snm="B"
V:1
 e8 | c4 d4 | e2 AB cdec | dccB/A/ B4 | A8 | z2 d4 c2 | f3 e d2 c2 | B4 e4- | e2 e2 d2 c2 | %9
w: Ma-|gnus san-|ctus Pau- * * * * *||lus,|vas e-|le- cti- ó- *|nis, vas|_ e- le- cti-|
 B4 c3 d | e4 A4 | z8 | z8 | z8 | z8 | e8 | c4 d4 | e2 AB cdec | dccB/A/ B4 | A4 z2 d2- | %20
w: ó- * *|* nis,|||||ma-|gnus san-|ctus Pau- * * * * *||lus, vas|
 d2 c2 f4- | f2 e2 d2 c2 | B2 A4 ^G2 | A8 | z2 e4 e2 | f4 d4 | e4 z2 c2 | d2 f2 e2 d2 | %28
w: _ e- le-|* cti- ó- *||nis,|ve- re|di- gne|est glo-|ri- fi- cán- *|
 c2 AB cdec | de f2 e2 d2- | dc c2 B4 | A8 | z8 | z2 A4 A2 | _B2 G2 A4 | z2 F2 G2 _B2 | A4 D2 d2- | %37
w: dus, glo- * * * * *|* * * ri- fi-|* * * cán-|dus,||ve- re|di- gne est|glo- ri- fi-|cán- dus, ve-|
 d2 c2 f4 | d2 g3 fed | cBcd e2 c2 | d2 f2 e2 d2- | d2 cB c4 | A4 z2 d2 | c2 ABcd e2 | dcBA B4 | %45
w: * re di-|gne est _ _ _|_ _ _ _ _ glo-|ri- fi- cán- *||dus, glo-|ri- fi- * * * *|cán- * * * *|
 c3 d e4- | e4 z4 | z4 e4- | e2 e2 g4 | f4 e4 | z8 | z4 A4- | A4 A4 | c4 B4 | A8 | z2 d4 c2 | %56
w: dus, _ _|_|qui|_ et mé-|ru- it,||qui|_ et|mé- ru-|it,|thro- num|
 A2 c2 d2 e2 | A2 d4 c2 | B4 A4- | A4 z4 | z8 | z8 | z2 d4 c2 | A2 c2 d2 e2 | A2 f4 e2- | %65
w: du- o- dé- ci-|mum pos- si-|dé- re,|_|||thro- num|du- o- dé- ci-|mum pos- si-|
 ed c2 B4 | A8 | z8 | A6 A2 | c4 B4 | A8 | z4 z2 d2- | d2 c2 A2 c2 | d2 e2 A2 d2- | d2 c2 B4 | %75
w: * * * dé-|re,||qui et|mé- ru-|it,|thro-|* num du- o-|dé- ci- mum pos-|* si- dé-|
 A8- | A8 | A3 B cdec | f2 ed c2 f2- | f2 e3 d d2- | d2 c2 d4- | d4 z2 d2- | d2 c2 A2 B2- | %83
w: re,|_|pos- * * * * *|* * * * si-|* dé- * *|* * re,|_ pos-|* si- dé- *|
 B2 A4 ^G2 | A8- | A8- | A8- | A8- | A8 |] %89
w: |re.|_||||
V:2
 z8 | z8 | A8 | F4 G4 | A2 DE FGAF | GF FE/D/ E4 | D4 z2 A2- | A2 G2 c3 B | A2 G2 F2 A2- | %9
w: ||Ma-|gnus san-|ctus Pau- * * * * *||lus, vas|_ e- le- *|* cti- ó- *|
 A2 ^G2 A4- | A4 z4 | z2 D2 C2 F2- | F2 ED E2 F2 | G4 A4- | A4 z2 E2- | E2 C2 c2 B2 | A3 G F4 | %17
w: * * nis,|_|vas e- le-|* * * * cti-|ó- nis,|_ vas|_ e- le- cti-|ó- * *|
 E8 | z2 A4 G2 | c3 B A2 G2 | F2 E2 DEFG | A8 | G2 F2 E3 D | C4 F4 | E4 z2 A2- | A2 A2 _B4 | %26
w: nis,|vas e-|le- * * cti-|ó- * * * * *||||nis, ve-|* re di-|
 G4 A4 | z2 F2 G2 _B2 | A3 G F2 E2 | D4 G3 F | E2 A4 ^G2 | A2 c3 BAG | FE F2 G3 F | ED E2 F2 A2 | %34
w: gne est|glo- ri- fi-|cán- * * *|dus, glo- *|* ri- fi-|cán- * * * *|||
 GFED E4 | D4 z4 | z8 | z2 A4 A2 | _B4 G4 | A8 | z2 F2 G2 _B2 | A4 A4 | z2 A2 G2 FG | AB c2 ABcA | %44
w: |dus,||ve- re|di- gne|est|glo- ri- fi-|cán- dus,|glo- ri- fi- *|* * * cán- * * *|
 BA A4 ^G2 | A8 | z8 | A6 A2 | c4 B4 | A4 c3 B | AG A4 G2- | GF D2 E4 | F4 E4 | z2 A4 G2 | %54
w: |dus,||qui et|mé- ru-|it, qui _|_ _ _ et|_ _ _ mé-|ru- it,|thro- num|
 F3 E F2 E2 | D4 z2 A2- | A2 G2 F2 E2 | F2 D2 E2 F2 | G4 z2 C2 | D4 E4 | D8 | z2 G4 F2 | %62
w: du- o- dé- ci-|mum thro-|* num du- o-|dé- ci- mum _|_ pos-|si- dé-|re,|thro- num|
 D2 F2 G2 A2 | D2 A4 G2 | F3 GAB c2- | cB A4 ^G2 | A4 z2 E2- | E2 E2 G4 | F2 ED E2 F2 | E2 A4 G2 | %70
w: du- o- dé- ci-|mum pos- si-|dé- * * * *||re, qui|_ et mé-|* * * * ru-|it, qui et|
 c6 BA | G2 A4 ^G2 | A4 z2 A2- | A2 G2 F2 F2 | G2 A2 D2 G2- | G2 F2 E3 D/E/ | F2 E2 F4 | %77
w: mé- * *|* * ru-|it, thro-|* num du- o-|dé- ci- mum pos-|* si- dé- * *||
 E4 z2 A2- | A2 G2 A3 G | FD G3 F D2 | E4 D4- | D4 A4 | G2 E2 FEDC | D4 E3 D | C2 F2 E4 | %85
w: re, pos-|* si- dé- *||* re,|_ pos-|si- * dé- * * *||* * re,|
 z2 E2 F2 C2- | CA, D4 C2 | F8 | E8 |] %89
w: pos- si- dé-|||re.|
V:3
 z8 | z8 | z8 | z8 | z8 | z8 | z8 | e8 | c4 d4 | e6 AB | cdec dc cB/A/ | B4 A4 | A4 z2 d2- | %13
w: |||||||Ma-|gnus san-|ctus Pau- *||lus, _|_ vas|
 d2 c2 f3 e | d2 c2 B4 | ABcd efge | f2 e3 d d2- | d2 c2 A2 c2 | B2 A2 e4- | e4 z4 | z4 z2 d2- | %21
w: _ e- le- *|* cti- ó-|nis, _ _ _ _ _ _ _|_ vas _ _|_ e- le- cti-|ó- * nis,|_|vas|
 d2 c2 f3 e | d2 c2 B4 | A2 f3 e d2- | d2 cB c4 | d4 G4 | c4 A4 | z8 | z8 | z8 | z4 e4- | %31
w: _ e- le- *|* cti- ó-|nis, e- * *||le- cti-|ó- nis,||||ve-|
 e2 e2 f4 | d4 e4 | z2 c2 d2 f2 | e2 d4 c2 | defd e2 f2- | fe a4 g2 | f2 e2 d4 | g3 f edcB | %39
w: * re di-|gne est|glo- ri- fi-|cán- * *|||||
 A4 z4 | z8 | z2 e4 e2 | f4 d4 | e4 z2 c2 | d2 f2 e4 | A4 z2 e2- | e2 e2 g4 | f2 e3 dcB | %48
w: dus,||ve- re|di- gne|est glo-|ri- fi- cán-|dus, qui|_ et mé-|ru- it, _ _ _|
 ABcd ef g2 | defg a3 g | fe f3 e e2- | ed d4 ^c2 | d4 A4 | z8 | z4 z2 a2- | a2 g2 f2 e2 | %56
w: _ _ _ _ _ _ _|qui _ _ _ _ _|_ _ _ et mé-|* * * ru-|it, _||thro-|* num du- o-|
 f2 e2 d2 c2 | d3 c/B/ AG A2 | GABc de f2- | fe d4 c2 | fedc Bc d2- | d2 ^c2 d4- | d4 z4 | z8 | %64
w: dé- ci- mum pos-|si- * * * * *|dé- * * * * * *|||* * re,|_||
 z2 d4 c2 | A2 c2 d2 e2 | A4 c3 B | A4 G2 d2- | d2 cB c2 d2 | A4 z2 e2- | e2 e2 f4 | e4 d4 | %72
w: thro- num|du- o- dé- ci-|mum pos- *|* si- dé-||re, qui|_ et mé-|ru- it,|
 e4 f4- | f2 e2 d3 c | B2 A2 GABc | d4 A4 | z4 z2 d2- | d2 c2 A2 c2 | d2 e2 A2 d2- | d2 c2 _B4 | %80
w: _ thro-|* num du- o-|dé- ci- mum _ _ _|_ _|thro-|* num du- o-|dé- ci- mum pos-|* si- dé-|
 A4 _B3 A | _Bcde f4 | e4 dcBA | G2 A2 B4 | A2 d4 c2 | A2 c2 d2 e2 | A2 f4 e2 | d8 | c8 |] %89
w: re, pos- *|||* si- dé-|re, thro- num|du- o- dé- ci-|mum pos- si-|dé-|re.|
V:4
 z8 | z8 | z8 | z8 | z8 | z8 | z8 | z8 | z8 | z4 A,4- | A,4 F,4 | G,4 A,2 D,E, | %12
w: |||||||||Ma-|* gnus|san- ctus Pau- *|
 F,G,A,F, G,F, F,E,/D,/ | E,4 D,4 | z2 A,4 G,2 | C3 B, A,2 G,2 | A,4 D,4 | A,8 | z8 | %19
w: |* lus,|vas e-|le- * * cti-|ó- *|nis,||
 A,4 F,2 _B,2 | A,4 D,3 E, | F,G, A,2 F,4 | G,2 A,2 E,4 | F,4 D,2 D,2 | A,8 | D,4 z4 | z8 | z8 | %28
w: vas e- le-|cti- ó- *||* * nis,|e- le- cti-|ó-|nis,|||
 A,6 A,2 | _B,4 G,4 | A,4 z4 | A,6 A,2 | _B,4 G,4 | A,4 z2 F,2 | G,2 _B,2 A,4 | D,2 D2 C2 D2- | %36
w: ve- re|di- gne|est|ve- re|di- gne|est glo-|ri- fi- cán-|dus, glo- ri- fi-|
 DC A,2 _B,4 | A,4 z4 | z8 | z2 A,4 A,2 | _B,4 G,4 | A,8 | z2 F,2 G,2 _B,2 | A,8 | D,4 z4 | %45
w: * * * cán-|dus,||ve- re|di- gne|est|glo- ri- fi-|cán-|dus,|
 z2 A,4 A,2 | C4 B,4 | A,8 | z8 | z4 A,4- | A,2 A,2 C4 | B,4 A,4 | z2 D4 C2 | A,2 C2 D2 E2 | %54
w: qui et|mé- ru-|it,||qui|_ et mé-|ru- it,|thro- num|du- o- dé- ci-|
 A,2 D4 C2 | B,4 A,4 | z8 | z8 | z2 G,4 F,2 | D,2 F,2 G,2 A,2 | D,2 G,4 F,2 | E,4 D,4- | D,4 x4 | %63
w: mum pos- si-|dé- re,|||thro- num|du- o- dé- ci-|mum pos- si-|dé- re,|_|
 z2 A,2 B,2 C2 | D4 A,4 | z8 | z2 A,4 A,2 | C4 B,4 | A,4 z4 | z8 | A,6 A,2 | C4 B,4 | A,4 z4 | z8 | %74
w: pos- si- *|dé- re,||qui et|mé- ru-|it,||qui et|mé- ru-|it,||
 z8 | z2 D4 C2 | A,2 C2 D2 D2 | A,4 z4 | z8 | z8 | z4 z2 G,2- | G,2 F,2 D,2 F,2 | %82
w: |thro- num|du- o- dé- ci-|mum|||thro-|* num du- o-|
 G,2 A,2 D,2 G,2- | G,2 F,2 E,4 | F,3 G, A,4- | A,4 z2 A,2 | F,2 D,E,F,G, A,2 | D,8 | A,8 |] %89
w: dé- ci- mum pos-|* si- dé-|re, _ _|_ pos-|si- dé- * * * *||re.|

